; generated by Slic3r 1.2.6 on 2015-12-12 at 08:23:01

; external perimeters extrusion width = 0.30mm
; perimeters extrusion width = 0.31mm
; infill extrusion width = 0.31mm
; solid infill extrusion width = 0.31mm
; top infill extrusion width = 0.31mm
; support material extrusion width = 0.30mm

M104 S200 ; set temperature
;<-- Mini Metal Maker Start Procedure -->
G21 ; set units to millimeters
G28 ; home all axes
G90 ; use absolute coordinates
G92 E0
M82 ; use absolute distances for extrusion
G1 Z1.0 F5000 ; lift nozzle to printing start height
G92 Z0
G1 Z0.5 ; raise tip enough for pressurization flow to begin
G1 X70.000 ; offset from X to do the pressurization procedure
G5 X0.000, F1800.000 E8.00000 ; return to home while pressurizing
G92 E0 ; set pressurized state as the zero reference for extruder
M106 ; turn on fan
;<--end Mini Metal Maker Start Procedure -->

M109 S200 ; wait for temperature to be reached
G21 ; set units to millimeters
G90 ; use absolute coordinates
M82 ; use absolute distances for extrusion
G92 E0
G10 ; retract
G92 E0
G1 Z0.250 F1200.000
G1 X23.718 Y24.030 F1200.000
G11 ; unretract
G92 E0
G1 X24.729 Y23.032 E0.01009 F600.000
G1 X25.711 Y22.237 E0.01906
G1 X29.703 Y19.607 E0.05302
G1 X30.821 Y19.019 E0.06200
G1 X38.432 Y15.924 E0.12037
G1 X40.019 Y15.504 E0.13203
G1 X41.159 Y15.354 E0.14019
G1 X42.841 Y15.354 E0.15215
G1 X43.981 Y15.504 E0.16031 F600.000
G1 X45.549 Y15.916 E0.17183
G1 X50.687 Y17.987 E0.21118
G1 X53.487 Y19.167 E0.23277
G1 X54.597 Y19.770 E0.24174
G1 X58.554 Y22.452 E0.27570
G1 X59.526 Y23.259 E0.28467
G1 X61.587 Y25.348 E0.30552
G1 X62.382 Y26.330 E0.31450
G1 X65.012 Y30.322 E0.34845
G1 X65.600 Y31.440 E0.35743
G1 X66.705 Y34.159 E0.37828
G1 X67.064 Y35.370 E0.38725
G1 X67.966 Y40.064 E0.42121
G1 X68.082 Y41.323 E0.43019
G1 X68.063 Y44.257 E0.45103
G1 X67.931 Y45.514 E0.46001
G1 X66.967 Y50.196 E0.49397
G1 X66.593 Y51.402 E0.50294
G1 X65.452 Y54.106 E0.52379
G1 X64.849 Y55.217 E0.53276
G1 X62.167 Y59.174 E0.56672
G1 X61.359 Y60.145 E0.57570
G1 X59.271 Y62.206 E0.59654
G1 X58.289 Y63.002 E0.60552
G1 X54.297 Y65.631 E0.63948
G1 X53.179 Y66.220 E0.64845
G1 X50.461 Y67.325 E0.66930
G1 X49.249 Y67.684 E0.67828
G1 X44.555 Y68.585 E0.71223
G1 X43.296 Y68.701 E0.72121
G1 X40.362 Y68.682 E0.74205
G1 X39.105 Y68.550 E0.75103
G1 X34.424 Y67.587 E0.78499
G1 X33.217 Y67.212 E0.79396
G1 X31.226 Y66.372 E0.80932
G1 X30.513 Y66.071 E0.81481
G1 X29.403 Y65.468 E0.82379
G1 X25.446 Y62.787 E0.85774
G1 X24.474 Y61.979 E0.86672
G1 X22.413 Y59.890 E0.88757
G1 X21.618 Y58.908 E0.89654
G1 X18.988 Y54.916 E0.93050
G1 X18.400 Y53.798 E0.93948
G1 X17.295 Y51.080 E0.96032
G1 X16.936 Y49.868 E0.96930
G1 X16.034 Y45.174 E1.00325
G1 X15.918 Y43.916 E1.01223
G1 X15.937 Y40.981 E1.03308
G1 X16.069 Y39.725 E1.04205
G1 X17.033 Y35.043 E1.07601
G1 X17.407 Y33.836 E1.08499
G1 X18.548 Y31.132 E1.10583
G1 X19.151 Y30.022 E1.11481
G1 X21.833 Y26.065 E1.14876
G1 X22.641 Y25.093 E1.15774
G1 X23.686 Y24.061 E1.16818
G10 ; retract
G92 E0
G1 X55.451 Y54.064 F1200.000
G11 ; unretract
G92 E0
G1 X56.503 Y55.529 E0.01281 F600.000
G1 X54.719 Y57.290 E0.03062
G1 X53.268 Y56.219 E0.04343
G1 X50.048 Y58.341 E0.07083
G1 X50.459 Y60.097 E0.08364
G1 X48.137 Y61.041 E0.10145
G1 X47.206 Y59.496 E0.11426
G1 X43.419 Y60.223 E0.14166
G1 X43.127 Y62.003 E0.15447
G1 X40.620 Y61.987 E0.17228
G1 X40.351 Y60.203 E0.18509
G1 X36.574 Y59.426 E0.21249
G1 X35.623 Y60.959 E0.22530
G1 X33.313 Y59.985 E0.24311
G1 X33.747 Y58.234 E0.25592
G1 X30.555 Y56.070 E0.28332
G1 X29.090 Y57.122 E0.29613
G1 X27.329 Y55.338 E0.31394
G1 X28.400 Y53.887 E0.32675
G1 X26.279 Y50.667 E0.35414
G1 X24.522 Y51.078 E0.36696
G1 X23.578 Y48.756 E0.38477
G1 X25.046 Y47.871 E0.39694
G1 X24.687 Y46.680 E0.40578
G1 X24.325 Y44.026 E0.42481
G1 X22.616 Y43.746 E0.43711
G1 X22.632 Y41.239 E0.45492
G1 X24.307 Y40.987 E0.46695
G1 X24.423 Y39.533 E0.47731
G1 X24.820 Y37.827 E0.48975
G1 X25.058 Y37.109 E0.49513
G1 X23.660 Y36.242 E0.50681
G1 X24.635 Y33.932 E0.52462
G1 X26.385 Y34.366 E0.53743
G1 X28.549 Y31.174 E0.56483
G1 X27.497 Y29.709 E0.57764
G1 X29.281 Y27.948 E0.59545
G1 X30.732 Y29.019 E0.60826
G1 X33.952 Y26.898 E0.63565
G1 X33.541 Y25.142 E0.64847
G1 X35.863 Y24.197 E0.66627
G1 X36.794 Y25.742 E0.67909
G1 X37.932 Y25.524 E0.68732
G1 X37.992 Y25.073 E0.69055
G1 X38.406 Y24.072 E0.69824
G1 X39.066 Y23.213 E0.70594
G1 X39.925 Y22.553 E0.71364
G1 X40.926 Y22.139 E0.72133
G1 X42.000 Y21.997 E0.72903
G1 X43.074 Y22.139 E0.73672
G1 X44.075 Y22.553 E0.74442
G1 X44.934 Y23.213 E0.75212
G1 X45.594 Y24.072 E0.75981
G1 X46.008 Y25.073 E0.76751
G1 X46.069 Y25.533 E0.77080
G1 X47.426 Y25.812 E0.78064
G1 X48.377 Y24.279 E0.79346
G1 X50.687 Y25.254 E0.81127
G1 X50.253 Y27.005 E0.82408
G1 X53.445 Y29.168 E0.85147
G1 X54.910 Y28.116 E0.86429
G1 X56.671 Y29.900 E0.88209
G1 X55.600 Y31.351 E0.89491
G1 X57.721 Y34.572 E0.92230
G1 X59.478 Y34.160 E0.93511
G1 X60.422 Y36.483 E0.95292
G1 X59.015 Y37.330 E0.96459
G1 X59.180 Y37.827 E0.96831
G1 X59.577 Y39.533 E0.98075
G1 X59.711 Y41.218 E0.99276
G1 X61.384 Y41.493 E1.00480
G1 X61.368 Y43.999 E1.02261
G1 X59.653 Y44.258 E1.03493
G1 X59.313 Y46.680 E1.05230
G1 X58.886 Y48.095 E1.06280
G1 X60.340 Y48.996 E1.07495
G1 X59.365 Y51.306 E1.09276
G1 X57.615 Y50.872 E1.10557
G1 X55.477 Y54.027 E1.13265
G10 ; retract
G92 E0
G1 X43.325 Y28.441 F1200.000
G11 ; unretract
G92 E0
G1 X42.686 Y28.706 E0.00491 F600.000
G1 X42.000 Y28.796 E0.00983
G1 X41.314 Y28.706 E0.01474
G1 X40.796 Y28.491 E0.01872
G1 X40.675 Y28.441 E0.01965
G1 X40.127 Y28.020 E0.02456
G1 X39.706 Y27.472 E0.02948
G1 X39.441 Y26.833 E0.03439
G1 X39.351 Y26.147 E0.03930
G1 X39.441 Y25.462 E0.04421
G1 X39.706 Y24.823 E0.04913
G1 X40.127 Y24.274 E0.05404
G1 X40.675 Y23.853 E0.05895
G1 X41.314 Y23.588 E0.06386
G1 X41.896 Y23.512 E0.06803
G1 X42.000 Y23.498 E0.06878 F600.000
G1 X42.686 Y23.588 E0.07369
G1 X43.325 Y23.853 E0.07860
G1 X43.873 Y24.274 E0.08351
G1 X44.294 Y24.823 E0.08843
G1 X44.559 Y25.462 E0.09334
G1 X44.649 Y26.147 E0.09825
G1 X44.559 Y26.833 E0.10316
G1 X44.294 Y27.472 E0.10808
G1 X43.873 Y28.020 E0.11299
G1 X43.360 Y28.414 E0.11758
G10 ; retract
G92 E0
G1 X45.931 Y35.968 F1200.000
G11 ; unretract
G92 E0
G1 X41.976 Y45.591 E0.07391 F600.000
G1 X38.089 Y35.968 E0.14763
G1 X36.060 Y35.968 E0.16205
G1 X36.060 Y36.732 E0.16748
G1 X33.877 Y36.732 E0.18299
G1 X30.911 Y45.151 E0.24639
G1 X28.634 Y39.257 E0.29128
G1 X27.822 Y36.863 E0.30924
G1 X27.526 Y36.782 E0.31142
G1 X29.348 Y33.427 E0.33854
G1 X32.158 Y30.465 E0.36755
G1 X35.639 Y28.332 E0.39655
G1 X38.144 Y27.590 E0.41511
G1 X38.406 Y28.222 E0.41997
G1 X39.066 Y29.082 E0.42767
G1 X39.925 Y29.741 E0.43536
G1 X40.926 Y30.156 E0.44306
G1 X42.000 Y30.297 E0.45076
G1 X43.074 Y30.156 E0.45845
G1 X44.075 Y29.741 E0.46615
G1 X44.934 Y29.082 E0.47384
G1 X45.594 Y28.222 E0.48154
G1 X45.852 Y27.598 E0.48634
G1 X47.605 Y28.019 E0.49914
G1 X51.193 Y29.967 E0.52814
G1 X54.154 Y32.777 E0.55715
G1 X56.287 Y36.258 E0.58615
G1 X56.435 Y36.758 E0.58985
G1 X56.182 Y36.850 E0.59177
G1 X55.366 Y39.257 E0.60982
G1 X53.089 Y45.151 E0.65471
G1 X50.123 Y36.732 E0.71811
G1 X47.961 Y36.732 E0.73347
G1 X47.961 Y35.968 E0.73890
G1 X45.976 Y35.968 E0.75300
G10 ; retract
G92 E0
G1 X50.050 Y47.944 F1200.000
G11 ; unretract
G92 E0
G1 X50.050 Y42.386 E0.03948 F600.000
G1 X50.552 Y42.303 E0.04310
G1 X52.452 Y47.907 E0.08513
G1 X53.808 Y47.907 E0.09476
G1 X56.730 Y39.856 E0.15560
G1 X57.220 Y39.938 E0.15912
G1 X57.273 Y42.019 E0.17391
G1 X57.175 Y44.162 E0.18915
G1 X56.914 Y46.211 E0.20382
G1 X56.368 Y48.063 E0.21754
G1 X56.647 Y48.139 E0.21959
G1 X54.652 Y51.812 E0.24928
G1 X51.842 Y54.773 E0.27828
G1 X48.361 Y56.906 E0.30729
G1 X44.447 Y58.066 E0.33629
G1 X40.365 Y58.173 E0.36529
G1 X36.395 Y57.220 E0.39430
G1 X32.807 Y55.272 E0.42330
G1 X31.655 Y54.178 E0.43459
G1 X29.846 Y52.461 E0.45230
G1 X27.713 Y48.980 E0.48130
G1 X27.455 Y48.111 E0.48774
G1 X27.633 Y48.063 E0.48905
G1 X27.086 Y46.211 E0.50277
G1 X26.825 Y44.162 E0.51743
G1 X26.727 Y42.019 E0.53268
G1 X26.780 Y39.938 E0.54746
G1 X27.270 Y39.856 E0.55099
G1 X30.192 Y47.907 E0.61183
G1 X31.548 Y47.907 E0.62146
G1 X33.448 Y42.303 E0.66349
G1 X33.950 Y42.386 E0.66710
G1 X33.950 Y47.944 E0.70659
G1 X36.060 Y47.944 E0.72158
G1 X36.060 Y49.041 E0.72937
G1 X38.008 Y49.041 E0.74320
G1 X38.008 Y42.512 E0.78959
G1 X38.492 Y42.417 E0.79309
G1 X41.200 Y49.041 E0.84393
G1 X42.822 Y49.041 E0.85545
G1 X45.529 Y42.417 E0.90629
G1 X46.014 Y42.512 E0.90980
G1 X46.014 Y49.041 E0.95618
G1 X47.961 Y49.041 E0.97002
G1 X47.961 Y47.944 E0.97781
G1 X50.005 Y47.944 E0.99233
G1 X49.793 Y47.565 F1200.000
G1 X46.270 Y44.043 E1.02779 F600.000
G1 X46.270 Y44.675 E1.03230
G1 X49.282 Y47.687 E1.06262
G1 X48.650 Y47.687 E1.06712
G1 X46.270 Y45.308 E1.09108
G1 X46.270 Y45.941 E1.09558
G1 X48.017 Y47.687 E1.11317
G1 X47.704 Y48.007 F1200.000
G1 X46.270 Y46.573 E1.12761 F600.000
G1 X46.270 Y47.206 E1.13211
G1 X47.704 Y48.640 E1.14655
G1 X47.216 Y48.784 E1.15018
G1 X46.270 Y47.838 E1.15970
G1 X46.270 Y48.471 E1.16420
G1 X46.584 Y48.784 E1.16736
G10 ; retract
G92 E0
G1 X43.262 Y47.361 F1200.000
G11 ; unretract
G92 E0
G1 X39.160 Y43.258 E0.04131 F600.000
G1 X38.722 Y42.188 F1200.000
G1 X41.334 Y44.800 E0.06761 F600.000
G1 X42.378 Y45.212 F1200.000
G1 X43.630 Y46.463 E0.08020 F600.000
G1 X43.446 Y46.912 E0.08366
G1 X42.194 Y45.660 E0.09626
G1 X42.563 Y44.763 F1200.000
G1 X43.813 Y46.014 E0.10885 F600.000
G1 X43.997 Y45.565 E0.11231
G1 X42.747 Y44.315 E0.12489
G1 X42.931 Y43.867 E0.12834
G1 X44.180 Y45.116 E0.14092
G1 X44.364 Y44.667 E0.14437
G1 X43.115 Y43.418 E0.15694
G1 X43.300 Y42.970 E0.16039
G1 X44.547 Y44.218 E0.17295
G1 X44.731 Y43.769 E0.17640
G1 X43.484 Y42.522 E0.18896
G1 X43.668 Y42.073 E0.19241
G1 X44.914 Y43.319 E0.20496
G1 X45.098 Y42.870 E0.20841
G1 X43.852 Y41.625 E0.22095
G1 X44.037 Y41.177 E0.22440
G1 X45.281 Y42.421 E0.23693
G1 X45.651 Y42.159 F1200.000
G1 X44.221 Y40.728 E0.25133 F600.000
G1 X44.405 Y40.280 E0.25478
G1 X49.793 Y45.668 E0.30903
G1 X49.793 Y45.035 E0.31353
G1 X44.589 Y39.832 E0.36592
G1 X44.774 Y39.383 E0.36937
G1 X49.793 Y44.403 E0.41991
G1 X49.793 Y43.770 E0.42441
G1 X44.958 Y38.935 E0.47309
G1 X45.142 Y38.487 E0.47654
G1 X49.793 Y43.137 E0.52336
G1 X49.793 Y42.505 E0.52787
G1 X45.327 Y38.038 E0.57283
G1 X45.511 Y37.590 E0.57628
G1 X50.060 Y42.139 E0.62208
G1 X51.585 Y41.766 F1200.000
G1 X46.064 Y36.245 E0.67767 F600.000
G1 X46.676 Y36.225 E0.68203
G1 X51.241 Y40.790 E0.72799
G1 X50.897 Y39.813 F1200.000
G1 X48.073 Y36.989 E0.75643 F600.000
G1 X47.704 Y36.621 F1200.000
G1 X47.308 Y36.225 E0.76041 F600.000
G1 X48.706 Y36.989 F1200.000
G1 X50.553 Y38.836 E0.77901 F600.000
G1 X50.209 Y37.860 F1200.000
G1 X49.338 Y36.989 E0.78777 F600.000
G10 ; retract
G92 E0
G1 X51.929 Y42.743 F1200.000
G11 ; unretract
G92 E0
G1 X45.879 Y36.693 E0.06091 F600.000
G1 X45.695 Y37.142 E0.06436
G1 X52.273 Y43.720 E0.13059
G1 X51.511 Y44.223 F1200.000
G1 X53.998 Y46.709 E0.15562 F600.000
G1 X54.166 Y46.245 E0.15914
G1 X53.261 Y45.340 E0.16825
G1 X53.437 Y44.884 E0.17173
G1 X54.335 Y45.781 E0.18076
G1 X54.503 Y45.317 E0.18428
G1 X53.614 Y44.428 E0.19323
G1 X53.790 Y43.971 E0.19672
G1 X54.672 Y44.853 E0.20559
G1 X54.840 Y44.389 E0.20911
G1 X53.966 Y43.515 E0.21790
G1 X54.143 Y43.059 E0.22139
G1 X55.009 Y43.925 E0.23011
G1 X55.177 Y43.461 E0.23362
G1 X54.319 Y42.603 E0.24226
G1 X54.495 Y42.146 E0.24574
G1 X55.346 Y42.997 E0.25430
G1 X55.514 Y42.532 E0.25782
G1 X54.672 Y41.690 E0.26630
G1 X54.848 Y41.234 E0.26978
G1 X55.683 Y42.068 E0.27819
G1 X55.851 Y41.604 E0.28170
G1 X55.024 Y40.777 E0.29003
G1 X55.201 Y40.321 E0.29351
G1 X56.020 Y41.140 E0.30176
G1 X56.188 Y40.676 E0.30527
G1 X55.377 Y39.865 E0.31344
G1 X55.553 Y39.409 E0.31692
G1 X56.357 Y40.212 E0.32501
G1 X56.525 Y39.748 E0.32853
G1 X55.718 Y38.941 E0.33665
G1 X55.878 Y38.468 E0.34020
G1 X57.041 Y39.631 E0.35191
G1 X57.483 Y40.073 F1200.000
G1 X61.114 Y43.704 E0.38847 F600.000
G10 ; retract
G92 E0
G1 X60.260 Y41.585 F1200.000
G11 ; unretract
G92 E0
G1 X61.122 Y42.447 E0.00868 F600.000
G1 X61.118 Y43.075 E0.01315
G1 X56.038 Y37.996 E0.06430
G1 X56.198 Y37.523 E0.06785
G1 X59.407 Y40.732 E0.10016
G1 X59.352 Y40.045 E0.10507
G1 X56.358 Y37.051 E0.13522
G1 X56.751 Y36.811 E0.13849
G1 X59.233 Y39.293 E0.16348
G1 X59.041 Y38.469 E0.16951
G1 X56.396 Y35.823 E0.19614
G1 X55.395 Y34.190 F1200.000
G1 X58.795 Y37.589 E0.23037 F600.000
G1 X58.949 Y37.111 F1200.000
G1 X47.672 Y25.834 E0.34390 F600.000
G1 X47.915 Y25.444 E0.34718
G1 X59.344 Y36.873 E0.46225
G1 X59.739 Y36.636 E0.46553
G1 X57.881 Y34.778 E0.48423
G1 X58.394 Y34.658 E0.48798
G1 X60.017 Y36.281 E0.50432
G1 X59.583 Y35.215 F1200.000
G1 X58.906 Y34.538 E0.51113 F600.000
G10 ; retract
G92 E0
G1 X56.673 Y33.570 F1200.000
G11 ; unretract
G92 E0
G1 X51.025 Y27.922 E0.05687 F600.000
G1 X50.368 Y29.162 F1200.000
G1 X47.268 Y26.063 E0.08807 F600.000
G1 X46.472 Y25.899 E0.09386
G1 X48.984 Y28.411 E0.11915
G1 X50.029 Y26.925 F1200.000
G1 X48.157 Y25.054 E0.13800 F600.000
G1 X48.399 Y24.663 E0.14127
G1 X50.154 Y26.418 E0.15894
G1 X50.280 Y25.912 E0.16266
G1 X49.410 Y25.042 E0.17141
G10 ; retract
G92 E0
G1 X45.710 Y25.138 F1200.000
G11 ; unretract
G92 E0
G1 X43.010 Y22.437 E0.02719 F600.000
G1 X43.570 Y23.630 F1200.000
G1 X42.241 Y22.301 E0.04057 F600.000
G1 X41.604 Y22.297 E0.04511
G1 X42.614 Y23.307 E0.05528
G1 X41.935 Y23.260 E0.06013
G1 X41.045 Y22.370 E0.06908
G1 X40.573 Y22.531 E0.07263
G1 X41.376 Y23.333 E0.08071
G1 X40.917 Y23.507 E0.08420
G1 X40.126 Y22.716 E0.09216
G1 X39.745 Y22.967 E0.09541
G1 X40.494 Y23.717 E0.10296
G1 X40.136 Y23.992 E0.10617
G1 X39.387 Y23.242 E0.11371
G1 X39.074 Y23.562 E0.11690
G1 X39.823 Y24.311 E0.12445
G1 X39.548 Y24.669 E0.12766
G1 X38.799 Y23.919 E0.13520
G1 X38.555 Y24.308 E0.13847
G1 X39.345 Y25.098 E0.14643
G1 X39.180 Y25.566 E0.14996
G1 X38.370 Y24.755 E0.15812
G1 X38.217 Y25.236 E0.16171
G1 X39.107 Y26.125 E0.17066
G1 X39.167 Y26.818 E0.17562
G1 X38.088 Y25.739 E0.18648
G1 X37.877 Y27.425 F1200.000
G1 X35.175 Y24.724 E0.21369 F600.000
G1 X34.725 Y24.906 E0.21714
G1 X37.389 Y27.570 E0.24396
G1 X36.901 Y27.715 E0.24758
G1 X34.275 Y25.089 E0.27402
G1 X33.871 Y25.317 E0.27732
G1 X36.413 Y27.859 E0.30292
G1 X35.925 Y28.004 E0.30654
G1 X34.064 Y26.143 E0.32527
G1 X34.252 Y26.964 E0.33127
G1 X35.467 Y28.178 E0.34349
G1 X35.074 Y28.419 E0.34677
G1 X33.871 Y27.215 E0.35888
G1 X33.489 Y27.466 E0.36214
G1 X34.682 Y28.659 E0.37414
G1 X34.290 Y28.899 E0.37742
G1 X33.108 Y27.718 E0.38932
G1 X32.727 Y27.969 E0.39257
G1 X33.898 Y29.140 E0.40435
G1 X33.505 Y29.380 E0.40763
G1 X32.345 Y28.220 E0.41931
G1 X31.964 Y28.471 E0.42256
G1 X33.113 Y29.620 E0.43413
G1 X32.721 Y29.861 E0.43740
G1 X31.583 Y28.723 E0.44886
G1 X31.201 Y28.974 E0.45212
G1 X32.329 Y30.101 E0.46347
G1 X31.956 Y30.362 E0.46670
G1 X30.820 Y29.225 E0.47814
G1 X29.439 Y28.477 F1200.000
G1 X31.648 Y30.686 E0.50039 F600.000
G1 X31.340 Y31.011 E0.50357
G1 X28.937 Y28.607 E0.52777
G1 X28.621 Y28.924 E0.53095
G1 X31.032 Y31.335 E0.55523
G1 X30.724 Y31.660 E0.55842
G1 X28.304 Y29.240 E0.58278
G1 X27.988 Y29.556 E0.58597
G1 X30.416 Y31.984 E0.61041
G1 X30.108 Y32.309 E0.61360
G1 X28.879 Y31.079 E0.62598
G1 X28.623 Y31.456 E0.62922
G1 X29.800 Y32.634 E0.64108
G1 X29.492 Y32.958 E0.64426
G1 X28.367 Y31.833 E0.65559
G1 X28.112 Y32.210 E0.65883
G1 X29.184 Y33.283 E0.66963
G1 X28.954 Y33.685 E0.67292
G1 X27.856 Y32.588 E0.68397
G1 X27.601 Y32.965 E0.68722
G1 X28.731 Y34.095 E0.69859
G1 X28.509 Y34.505 E0.70192
G1 X27.345 Y33.342 E0.71363
G1 X27.090 Y33.719 E0.71687
G1 X28.286 Y34.915 E0.72891
G1 X28.063 Y35.325 E0.73223
G1 X26.834 Y34.096 E0.74461
G1 X26.579 Y34.473 E0.74785
G1 X27.841 Y35.735 E0.76055
G1 X27.618 Y36.145 E0.76387
G1 X26.047 Y34.573 E0.77970
G1 X25.205 Y34.365 E0.78587
G1 X27.395 Y36.555 E0.80792
G1 X27.173 Y36.965 E0.81124
G1 X24.662 Y34.453 E0.83652
G1 X24.474 Y34.898 E0.83996
G1 X28.065 Y38.490 E0.87612
G1 X28.389 Y39.447 F1200.000
G1 X24.286 Y35.343 E0.91743 F600.000
G1 X24.098 Y35.788 E0.92087
G1 X25.016 Y36.706 E0.93011
G1 X25.028 Y37.982 F1200.000
G1 X26.744 Y39.699 E0.94739 F600.000
G1 X26.521 Y40.108 F1200.000
