; generated by Slic3r 1.2.9 on 2016-01-07 at 09:02:26

; external perimeters extrusion width = 0.30mm
; perimeters extrusion width = 0.31mm
; infill extrusion width = 0.31mm
; solid infill extrusion width = 0.31mm
; top infill extrusion width = 0.31mm
; support material extrusion width = 0.30mm

M104 S200 ; set temperature
;<-- Mini Metal Maker Start Procedure -->
G21 ; set units to millimeters
G28 ; home all axes
G90 ; use absolute coordinates
G92 E0
M82 ; use absolute distances for extrusion
G1 Z0.6 F5000 ; lift nozzle to printing start height
G92 Z0
G1 Z0.5 ; raise tip enough for pressurization flow to begin
G1 X70.000 ; offset from X to do the pressurization procedure
G5 X0.000, F1800.000 E5.00000 ; return to home while pressurizing
G92 E0 ; set pressurized state as the zero reference for extruder
M106 ; turn on fan
;<--end Mini Metal Maker Start Procedure -->

M109 S200 ; wait for temperature to be reached
G21 ; set units to millimeters
G90 ; use absolute coordinates
M82 ; use absolute distances for extrusion
G92 E0
G10 ; retract
G92 E0
G1 Z0.250 F1200.000
G1 X32.154 Y32.883 F1200.000
G11 ; unretract
G92 E0
G1 X33.900 Y31.445 E0.01607 F600.000
G1 X37.062 Y30.616 E0.03929
G1 X46.938 Y30.616 E0.10944
G1 X49.165 Y31.013 E0.12551
G1 X51.118 Y32.155 E0.14158 F600.000
G1 X52.556 Y33.901 E0.15765
G1 X53.384 Y37.063 E0.18087
G1 X53.384 Y46.938 E0.25102
G1 X52.987 Y49.165 E0.26709
G1 X51.845 Y51.117 E0.28316
G1 X50.099 Y52.556 E0.29923
G1 X46.938 Y53.384 E0.32245
G1 X37.062 Y53.384 E0.39261
G1 X34.835 Y52.987 E0.40868
G1 X32.882 Y51.845 E0.42475
G1 X31.444 Y50.099 E0.44081
G1 X30.615 Y46.938 E0.46403
G1 X30.615 Y37.063 E0.53418
G1 X31.012 Y34.836 E0.55025
G1 X32.131 Y32.922 E0.56600
G10 ; retract
G92 E0
G1 X46.688 Y46.688 F1200.000
G11 ; unretract
G92 E0
G1 X37.312 Y46.688 E0.06661 F600.000
G1 X37.312 Y37.313 E0.13320
G1 X46.688 Y37.313 E0.19981
G1 X46.688 Y46.643 E0.26609
G10 ; retract
G92 E0
G1 X46.423 Y37.807 F1200.000
G11 ; unretract
G92 E0
G1 X46.194 Y37.577 E0.00233 F600.000
G1 X45.555 Y37.577 E0.00691
G1 X46.423 Y38.445 E0.01573
G1 X46.423 Y39.083 E0.02031
G1 X44.917 Y37.577 E0.03561
G1 X44.279 Y37.577 E0.04020
G1 X46.423 Y39.722 E0.06198
G1 X46.423 Y40.360 E0.06656
G1 X43.641 Y37.577 E0.09483
G1 X43.002 Y37.577 E0.09941
G1 X46.423 Y40.998 E0.13416
G1 X46.423 Y41.636 E0.13875
G1 X42.364 Y37.577 E0.17998
G1 X41.726 Y37.577 E0.18457
G1 X46.423 Y42.275 E0.23229
G1 X46.423 Y42.913 E0.23687
G1 X41.087 Y37.577 E0.29107
G1 X40.449 Y37.577 E0.29566
G1 X46.423 Y43.551 E0.35634
G1 X46.423 Y44.190 E0.36093
G1 X39.811 Y37.577 E0.42810
G1 X39.173 Y37.577 E0.43268
G1 X46.423 Y44.828 E0.50634
G1 X46.423 Y45.466 E0.51092
G1 X38.534 Y37.577 E0.59106
G1 X37.896 Y37.577 E0.59564
G1 X46.423 Y46.104 E0.68227
G1 X46.103 Y46.423 E0.68551
G1 X37.576 Y37.896 E0.77213
G1 X37.576 Y38.534 E0.77671
G1 X45.465 Y46.423 E0.85685
G1 X44.827 Y46.423 E0.86144
G1 X37.576 Y39.173 E0.93509
G1 X37.576 Y39.811 E0.93967
G1 X44.189 Y46.423 E1.00684
G1 X43.550 Y46.423 E1.01143
G1 X37.576 Y40.449 E1.07211
G1 X37.576 Y41.087 E1.07670
G1 X42.912 Y46.423 E1.13090
G1 X42.274 Y46.423 E1.13549
G1 X37.576 Y41.726 E1.18320
G1 X37.576 Y42.364 E1.18779
G1 X41.635 Y46.423 E1.22902
G1 X40.997 Y46.423 E1.23361
G1 X37.576 Y43.002 E1.26836
G1 X37.576 Y43.641 E1.27294
G1 X40.359 Y46.423 E1.30121
G1 X39.721 Y46.423 E1.30579
G1 X37.576 Y44.279 E1.32757
G1 X37.576 Y44.917 E1.33216
G1 X39.082 Y46.423 E1.34746
G1 X38.444 Y46.423 E1.35204
G1 X37.576 Y45.555 E1.36085
G1 X37.576 Y46.194 E1.36544
G1 X37.806 Y46.423 E1.36777
G10 ; retract
G92 E0
G1 Z0.250 F1200.000
G1 Z0.550 F1200.000
G1 X46.650 Y46.651 F1200.000
G11 ; unretract
G92 E0
G1 X37.349 Y46.651 E0.04185 F480.000
G1 X37.349 Y37.351 E0.08370
G1 X46.650 Y37.351 E0.12556
G1 X46.650 Y46.606 E0.16721
G1 X46.367 Y46.514 F1200.000
G1 X46.513 Y46.368 E0.16820 F480.000
G1 X46.513 Y46.012 E0.16990
G1 X46.012 Y46.514 E0.17331
G1 X45.656 Y46.514 E0.17501
G1 X46.513 Y45.657 E0.18082
G1 X46.513 Y45.302 E0.18253
G1 X45.301 Y46.514 E0.19075
G1 X44.946 Y46.514 E0.19246
G1 X46.513 Y44.947 E0.20309
G1 X46.513 Y44.592 E0.20479
G1 X44.591 Y46.514 E0.21784
G1 X44.235 Y46.514 E0.21954
G1 X46.513 Y44.236 E0.23499
G1 X46.513 Y43.881 E0.23670
G1 X43.880 Y46.514 E0.25456
G1 X43.525 Y46.514 E0.25627
G1 X46.513 Y43.526 E0.27654
G1 X46.513 Y43.171 E0.27824
G1 X43.170 Y46.514 E0.30093
G1 X42.814 Y46.514 E0.30263
G1 X46.513 Y42.815 E0.32773
G1 X46.513 Y42.460 E0.32943
G1 X42.459 Y46.514 E0.35693
G1 X42.104 Y46.514 E0.35864
G1 X46.513 Y42.105 E0.38855
G1 X46.513 Y41.750 E0.39026
G1 X41.749 Y46.514 E0.42258
G1 X41.394 Y46.514 E0.42428
G1 X46.513 Y41.394 E0.45902
G1 X46.513 Y41.039 E0.46072
G1 X41.038 Y46.514 E0.49787
G1 X40.683 Y46.514 E0.49957
G1 X46.513 Y40.684 E0.53913
G1 X46.513 Y40.329 E0.54083
G1 X40.328 Y46.514 E0.58280
G1 X39.973 Y46.514 E0.58450
G1 X46.513 Y39.973 E0.62887
G1 X46.513 Y39.618 E0.63058
G1 X39.617 Y46.514 E0.67736
G1 X39.262 Y46.514 E0.67907
G1 X46.513 Y39.263 E0.72826
G1 X46.513 Y38.908 E0.72997
G1 X38.907 Y46.514 E0.78157
G1 X38.552 Y46.514 E0.78328
G1 X46.513 Y38.553 E0.83729
G1 X46.513 Y38.197 E0.83900
G1 X38.196 Y46.514 E0.89542
G1 X37.841 Y46.514 E0.89713
G1 X46.513 Y37.842 E0.95596
G1 X46.493 Y37.507 E0.95757
G1 X37.506 Y46.494 E1.01854
G1 X37.485 Y46.159 E1.02015
G1 X46.157 Y37.487 E1.07899
G1 X45.802 Y37.487 E1.08069
G1 X37.485 Y45.804 E1.13712
G1 X37.485 Y45.449 E1.13882
G1 X45.447 Y37.487 E1.19284
G1 X45.092 Y37.487 E1.19454
G1 X37.485 Y45.094 E1.24615
G1 X37.485 Y44.738 E1.24785
G1 X44.736 Y37.487 E1.29705
G1 X44.381 Y37.487 E1.29875
G1 X37.485 Y44.383 E1.34554
G1 X37.485 Y44.028 E1.34724
G1 X44.026 Y37.487 E1.39161
G1 X43.671 Y37.487 E1.39332
G1 X37.485 Y43.673 E1.43528
G1 X37.485 Y43.317 E1.43699
G1 X43.316 Y37.487 E1.47654
G1 X42.960 Y37.487 E1.47825
G1 X37.485 Y42.962 E1.51539
G1 X37.485 Y42.607 E1.51709
G1 X42.605 Y37.487 E1.55183
G1 X42.250 Y37.487 E1.55353
G1 X37.485 Y42.252 E1.58586
G1 X37.485 Y41.896 E1.58756
G1 X41.895 Y37.487 E1.61747
G1 X41.539 Y37.487 E1.61918
G1 X37.485 Y41.541 E1.64668
G1 X37.485 Y41.186 E1.64839
G1 X41.184 Y37.487 E1.67348
G1 X40.829 Y37.487 E1.67518
G1 X37.485 Y40.831 E1.69787
G1 X37.485 Y40.475 E1.69957
G1 X40.474 Y37.487 E1.71985
G1 X40.118 Y37.487 E1.72155
G1 X37.485 Y40.120 E1.73941
G1 X37.485 Y39.765 E1.74112
G1 X39.763 Y37.487 E1.75657
G1 X39.408 Y37.487 E1.75827
G1 X37.485 Y39.410 E1.77132
G1 X37.485 Y39.055 E1.77302
G1 X39.053 Y37.487 E1.78366
G1 X38.697 Y37.487 E1.78536
G1 X37.485 Y38.699 E1.79358
G1 X37.485 Y38.344 E1.79529
G1 X38.342 Y37.487 E1.80110
G1 X37.987 Y37.487 E1.80280
G1 X37.485 Y37.989 E1.80621
G1 X37.485 Y37.634 E1.80791
G1 X37.632 Y37.487 E1.80890
G10 ; retract
G92 E0
G1 Z0.850 F1200.000
G1 X46.499 Y46.501 F1200.000
G11 ; unretract
G92 E0
G1 X37.498 Y46.501 E0.04050 F480.000
G1 X37.498 Y37.501 E0.08100
G1 X46.499 Y37.501 E0.12151
G1 X46.499 Y46.456 E0.16181
G10 ; retract
G92 E0
G1 X46.363 Y37.784 F1200.000
G11 ; unretract
G92 E0
G1 X46.216 Y37.638 E0.00100 F480.000
G1 X45.859 Y37.638 E0.00273
G1 X46.363 Y38.142 E0.00617
G1 X46.363 Y38.499 E0.00789
G1 X45.501 Y37.638 E0.01377
G1 X45.144 Y37.638 E0.01550
G1 X46.363 Y38.857 E0.02382
G1 X46.363 Y39.214 E0.02555
G1 X44.786 Y37.638 E0.03632
G1 X44.429 Y37.638 E0.03804
G1 X46.363 Y39.572 E0.05125
G1 X46.363 Y39.929 E0.05298
G1 X44.071 Y37.638 E0.06862
G1 X43.714 Y37.638 E0.07035
G1 X46.363 Y40.287 E0.08844
G1 X46.363 Y40.644 E0.09017
G1 X43.356 Y37.638 E0.11070
G1 X42.998 Y37.638 E0.11242
G1 X46.363 Y41.002 E0.13539
G1 X46.363 Y41.360 E0.13712
G1 X42.641 Y37.638 E0.16253
G1 X42.283 Y37.638 E0.16426
G1 X46.363 Y41.717 E0.19212
G1 X46.363 Y42.075 E0.19384
G1 X41.926 Y37.638 E0.22414
G1 X41.568 Y37.638 E0.22587
G1 X46.363 Y42.432 E0.25860
G1 X46.363 Y42.790 E0.26033
G1 X41.211 Y37.638 E0.29551
G1 X40.853 Y37.638 E0.29724
G1 X46.363 Y43.147 E0.33486
G1 X46.363 Y43.505 E0.33658
G1 X40.496 Y37.638 E0.37665
G1 X40.138 Y37.638 E0.37837
G1 X46.363 Y43.862 E0.42088
G1 X46.363 Y44.220 E0.42260
G1 X39.781 Y37.638 E0.46755
G1 X39.423 Y37.638 E0.46927
G1 X46.363 Y44.577 E0.51666
G1 X46.363 Y44.935 E0.51839
G1 X39.066 Y37.638 E0.56822
G1 X38.708 Y37.638 E0.56994
G1 X46.363 Y45.292 E0.62221
G1 X46.363 Y45.650 E0.62394
G1 X38.350 Y37.638 E0.67865
G1 X37.993 Y37.638 E0.68038
G1 X46.363 Y46.008 E0.73753
G1 X46.342 Y46.345 E0.73916
G1 X37.655 Y37.658 E0.79848
G1 X37.635 Y37.995 E0.80011
G1 X46.005 Y46.365 E0.85726
G1 X45.647 Y46.365 E0.85899
G1 X37.635 Y38.352 E0.91370
G1 X37.635 Y38.710 E0.91543
G1 X45.290 Y46.365 E0.96770
G1 X44.932 Y46.365 E0.96942
G1 X37.635 Y39.068 E1.01925
G1 X37.635 Y39.425 E1.02098
G1 X44.574 Y46.365 E1.06836
G1 X44.217 Y46.365 E1.07009
G1 X37.635 Y39.783 E1.11504
G1 X37.635 Y40.140 E1.11676
G1 X43.859 Y46.365 E1.15927
G1 X43.502 Y46.365 E1.16099
G1 X37.635 Y40.498 E1.20105
G1 X37.635 Y40.855 E1.20278
G1 X43.144 Y46.365 E1.24040
G1 X42.787 Y46.365 E1.24213
G1 X37.635 Y41.213 E1.27731
G1 X37.635 Y41.570 E1.27903
G1 X42.429 Y46.365 E1.31177
G1 X42.072 Y46.365 E1.31350
G1 X37.635 Y41.928 E1.34379
G1 X37.635 Y42.285 E1.34552
G1 X41.714 Y46.365 E1.37338
G1 X41.357 Y46.365 E1.37510
G1 X37.635 Y42.643 E1.40052
G1 X37.635 Y43.000 E1.40224
G1 X40.999 Y46.365 E1.42521
G1 X40.642 Y46.365 E1.42694
G1 X37.635 Y43.358 E1.44747
G1 X37.635 Y43.716 E1.44920
G1 X40.284 Y46.365 E1.46729
G1 X39.926 Y46.365 E1.46901
G1 X37.635 Y44.073 E1.48466
G1 X37.635 Y44.431 E1.48639
G1 X39.569 Y46.365 E1.49959
G1 X39.211 Y46.365 E1.50132
G1 X37.635 Y44.788 E1.51208
G1 X37.635 Y45.146 E1.51381
G1 X38.854 Y46.365 E1.52213
G1 X38.496 Y46.365 E1.52386
G1 X37.635 Y45.503 E1.52974
G1 X37.635 Y45.861 E1.53147
G1 X38.139 Y46.365 E1.53491
G1 X37.781 Y46.365 E1.53664
G1 X37.635 Y46.218 E1.53763
G10 ; retract
G92 E0
G1 Z1.150 F1200.000
G1 X46.349 Y46.352 F1200.000
G11 ; unretract
G92 E0
G1 X37.648 Y46.352 E0.03915 F480.000
G1 X37.648 Y37.652 E0.07830
G1 X46.349 Y37.652 E0.11746
G1 X46.349 Y46.307 E0.15641
G1 X46.066 Y46.215 F1200.000
G1 X46.212 Y46.069 E0.15741 F480.000
G1 X46.212 Y45.709 E0.15916
G1 X45.706 Y46.215 E0.16265
G1 X45.346 Y46.215 E0.16440
G1 X46.212 Y45.349 E0.17035
G1 X46.212 Y44.989 E0.17211
G1 X44.986 Y46.215 E0.18054
G1 X44.626 Y46.215 E0.18229
G1 X46.212 Y44.629 E0.19320
G1 X46.212 Y44.269 E0.19495
G1 X44.266 Y46.215 E0.20833
G1 X43.906 Y46.215 E0.21008
G1 X46.212 Y43.909 E0.22594
G1 X46.212 Y43.548 E0.22770
G1 X43.545 Y46.215 E0.24603
G1 X43.185 Y46.215 E0.24778
G1 X46.212 Y43.188 E0.26859
G1 X46.212 Y42.828 E0.27035
G1 X42.825 Y46.215 E0.29363
G1 X42.465 Y46.215 E0.29538
G1 X46.212 Y42.468 E0.32115
G1 X46.212 Y42.108 E0.32290
G1 X44.209 Y44.111 E0.33667
G1 X44.105 Y44.215 F1200.000
G1 X42.105 Y46.215 E0.35042 F480.000
G1 X41.745 Y46.215 E0.35217
G1 X43.745 Y44.215 E0.36592
G1 X43.385 Y44.215 E0.36767
G1 X41.385 Y46.215 E0.38142
G1 X41.025 Y46.215 E0.38317
G1 X43.025 Y44.215 E0.39692
G1 X42.665 Y44.215 E0.39867
G1 X40.665 Y46.215 E0.41242
G1 X40.305 Y46.215 E0.41417
G1 X42.305 Y44.215 E0.42792
G1 X41.945 Y44.215 E0.42967
G1 X39.945 Y46.215 E0.44342
G1 X39.585 Y46.215 E0.44517
G1 X41.585 Y44.215 E0.45892
G1 X41.225 Y44.215 E0.46067
G1 X39.225 Y46.215 E0.47442
G1 X38.865 Y46.215 E0.47617
G1 X40.865 Y44.215 E0.48992
G1 X40.505 Y44.215 E0.49167
G1 X38.505 Y46.215 E0.50542
G1 X38.145 Y46.215 E0.50717
G1 X40.144 Y44.215 E0.52092
G1 X39.784 Y44.215 E0.52267
G1 X37.805 Y46.195 E0.53629
G1 X37.784 Y45.855 E0.53794
G1 X39.784 Y43.856 E0.55169
G1 X39.784 Y43.496 E0.55344
G1 X37.784 Y45.495 E0.56719
G1 X37.784 Y45.135 E0.56894
G1 X39.784 Y43.136 E0.58269
G1 X39.784 Y42.776 E0.58444
G1 X37.784 Y44.775 E0.59819
G1 X37.784 Y44.415 E0.59994
G1 X39.784 Y42.416 E0.61369
G1 X39.784 Y42.056 E0.61544
G1 X37.784 Y44.055 E0.62919
G1 X37.784 Y43.695 E0.63094
G1 X39.784 Y41.696 E0.64469
G1 X39.784 Y41.336 E0.64645
G1 X37.784 Y43.335 E0.66019
G1 X37.784 Y42.975 E0.66195
G1 X39.784 Y40.976 E0.67570
G1 X39.784 Y40.616 E0.67745
G1 X37.784 Y42.615 E0.69120
G1 X37.784 Y42.255 E0.69295
G1 X39.784 Y40.255 E0.70670
G1 X39.784 Y39.895 E0.70845
G1 X37.784 Y41.895 E0.72220
G1 X37.784 Y41.535 E0.72395
G1 X41.531 Y37.788 E0.74971
G1 X41.171 Y37.788 E0.75146
G1 X37.784 Y41.175 E0.77475
G1 X37.784 Y40.815 E0.77650
G1 X40.811 Y37.788 E0.79731
G1 X40.451 Y37.788 E0.79906
G1 X37.784 Y40.455 E0.81740
G1 X37.784 Y40.095 E0.81915
G1 X40.091 Y37.788 E0.83501
G1 X39.731 Y37.788 E0.83676
G1 X37.784 Y39.735 E0.85014
G1 X37.784 Y39.375 E0.85189
G1 X39.371 Y37.788 E0.86280
G1 X39.011 Y37.788 E0.86455
G1 X37.784 Y39.015 E0.87299
G1 X37.784 Y38.655 E0.87474
G1 X38.651 Y37.788 E0.88070
G1 X38.291 Y37.788 E0.88245
G1 X37.784 Y38.295 E0.88593
G1 X37.784 Y37.935 E0.88768
G1 X37.931 Y37.788 E0.88868
G10 ; retract
G92 E0
G1 X39.888 Y39.791 F1200.000
G11 ; unretract
G92 E0
G1 X41.891 Y37.788 E0.01377 F480.000
G1 X42.251 Y37.788 E0.01552
G1 X40.249 Y39.791 E0.02929
G1 X40.609 Y39.791 E0.03104
G1 X42.611 Y37.788 E0.04481
G1 X42.971 Y37.788 E0.04656
G1 X40.969 Y39.791 E0.06034
G1 X41.329 Y39.791 E0.06209
G1 X43.331 Y37.788 E0.07586
G1 X43.691 Y37.788 E0.07761
G1 X41.689 Y39.791 E0.09138
G1 X42.049 Y39.791 E0.09313
G1 X44.051 Y37.788 E0.10690
G1 X44.411 Y37.788 E0.10865
G1 X42.409 Y39.791 E0.12242
G1 X42.769 Y39.791 E0.12417
G1 X44.771 Y37.788 E0.13794
G1 X45.132 Y37.788 E0.13969
G1 X43.129 Y39.791 E0.15346
G1 X43.489 Y39.791 E0.15521
G1 X45.492 Y37.788 E0.16899
G1 X45.852 Y37.788 E0.17074
G1 X43.849 Y39.791 E0.18451
G1 X44.209 Y39.791 E0.18626
G1 X46.192 Y37.808 E0.19989
G1 X46.212 Y38.148 E0.20155
G1 X44.209 Y40.151 E0.21532
G1 X44.209 Y40.511 E0.21707
G1 X46.212 Y38.508 E0.23084
G1 X46.212 Y38.868 E0.23259
G1 X44.209 Y40.871 E0.24636
G1 X44.209 Y41.231 E0.24811
G1 X46.212 Y39.228 E0.26188
G1 X46.212 Y39.588 E0.26364
G1 X44.209 Y41.591 E0.27741
G1 X44.209 Y41.951 E0.27916
G1 X46.212 Y39.948 E0.29293
G1 X46.212 Y40.308 E0.29468
G1 X44.209 Y42.311 E0.30845
G1 X44.209 Y42.671 E0.31020
G1 X46.212 Y40.668 E0.32397
G1 X46.212 Y41.028 E0.32572
G1 X44.209 Y43.031 E0.33949
G1 X44.209 Y43.391 E0.34125
G1 X46.212 Y41.388 E0.35502
G1 X46.212 Y41.748 E0.35677
G1 X44.209 Y43.751 E0.37054
G10 ; retract
G92 E0
G1 X39.961 Y39.968 F1200.000
G11 ; unretract
G92 E0
G1 X44.032 Y39.968 E0.01948 F480.000
G1 X44.032 Y44.038 E0.03896
G1 X39.961 Y44.038 E0.05844
G1 X39.961 Y40.013 E0.07771
G1 X40.216 Y40.223 F1200.000
G1 X43.777 Y40.223 E0.09476 F480.000
G1 X43.777 Y43.784 E0.11180
G1 X40.216 Y43.784 E0.12885
G1 X40.216 Y40.268 E0.14568
G1 X40.470 Y40.477 F1200.000
G1 X43.523 Y40.477 E0.16029 F480.000
G1 X43.523 Y43.529 E0.17490
G1 X40.470 Y43.529 E0.18951
G1 X40.470 Y40.522 E0.20390
G1 X40.725 Y40.732 F1200.000
G1 X43.269 Y40.732 E0.21608 F480.000
G1 X43.269 Y43.275 E0.22825
G1 X40.725 Y43.275 E0.24043
G1 X40.725 Y40.777 E0.25239
G1 X40.979 Y40.986 F1200.000
G1 X43.014 Y40.986 E0.26213 F480.000
G1 X43.014 Y43.020 E0.27186
G1 X40.979 Y43.020 E0.28161
G1 X40.979 Y41.031 E0.29113
G1 X41.233 Y41.240 F1200.000
G1 X42.760 Y41.240 E0.29843 F480.000
G1 X42.760 Y42.766 E0.30574
G1 X41.233 Y42.766 E0.31304
G1 X41.233 Y41.285 E0.32013
G1 X41.488 Y41.495 F1200.000
G1 X42.505 Y41.495 E0.32500 F480.000
G1 X42.505 Y42.512 E0.32987
G1 X41.488 Y42.512 E0.33474
G1 X41.488 Y41.540 E0.33939
G1 X41.742 Y41.749 F1200.000
G1 X42.251 Y41.749 E0.34182 F480.000
G1 X42.251 Y42.257 E0.34426
G1 X41.742 Y42.257 E0.34669
G1 X41.742 Y41.794 E0.34891
G10 ; retract
G92 E0
G1 Z1.450 F1200.000
G1 X46.198 Y46.202 F1200.000
G11 ; unretract
G92 E0
G1 X37.797 Y46.202 E0.03780 F480.000
G1 X37.797 Y37.802 E0.07561
G1 X46.198 Y37.802 E0.11341
G1 X46.198 Y46.157 E0.15101
G10 ; retract
G92 E0
G1 X46.062 Y38.085 F1200.000
G11 ; unretract
G92 E0
G1 X45.915 Y37.939 E0.00099 F480.000
G1 X45.561 Y37.939 E0.00269
G1 X46.062 Y38.440 E0.00608
G1 X46.062 Y38.795 E0.00778
G1 X45.206 Y37.939 E0.01358
G1 X44.851 Y37.939 E0.01528
G1 X46.062 Y39.149 E0.02348
G1 X46.062 Y39.504 E0.02518
G1 X44.496 Y37.939 E0.03578
G1 X44.142 Y37.939 E0.03748
G1 X46.062 Y39.859 E0.05049
G1 X46.062 Y40.213 E0.05219
G1 X43.787 Y37.939 E0.06760
G1 X43.432 Y37.939 E0.06929
G1 X46.062 Y40.568 E0.08711
G1 X46.062 Y40.923 E0.08881
G1 X43.078 Y37.939 E0.10902
G1 X42.723 Y37.939 E0.11072
